X: 32519
T: Planxty Colm Ó Meachair
R: polka
M: 2/4
K: Amajor
|:eA A/2A/2A|ae ce|f/2g/2a/2b/2 ag|fe ce|dA/2d/2 ad|cA/2c/2 ac|BE E/2E/2E|E3B|
B2 BB/2A/2|B/2c/2d/2c/2 Bc/2d/2|c>f a>g|f2 ec|B2 AB|dc AE|F2 A2|1 E2 GA:|2 E2 A2||
Fc' c'/2c'/2c'|c'b ag|f/2g/2a d'b|c'a ec|Bf fe|f2 f/2g/2a|gc c'b|ag ec|
A2{Bcdefgabc'd'e'f'g'} a'2|A2{Bcdefgabc'd'e'f'g'} a'A|Be eB|dc AE|FA EA|CA A,C|B,2 A,G,|A,E, A/2B/2c/2d/2||

